styles/1/Numix/48/places/purple-folder-projects.svg

<?xml version="1.0" encoding="UTF-8" standalone="no"?>
<!-- Created with Inkscape (http://www.inkscape.org/) -->

<svg
   xmlns:dc="http://purl.org/dc/elements/1.1/"
   xmlns:cc="http://creativecommons.org/ns#"
   xmlns:rdf="http://www.w3.org/1999/02/22-rdf-syntax-ns#"
   xmlns:svg="http://www.w3.org/2000/svg"
   xmlns="http://www.w3.org/2000/svg"
   xmlns:sodipodi="http://sodipodi.sourceforge.net/DTD/sodipodi-0.dtd"
   xmlns:inkscape="http://www.inkscape.org/namespaces/inkscape"
   width="48"
   height="48"
   id="svg2"
   version="1.1"
   inkscape:version="0.91 r"
   sodipodi:docname="purple-folder-projects.svg">
  <defs
     id="defs4" />
  <sodipodi:namedview
     id="base"
     pagecolor="#ffffff"
     bordercolor="#666666"
     borderopacity="1.0"
     inkscape:pageopacity="0.0"
     inkscape:pageshadow="2"
     inkscape:zoom="12.466293"
     inkscape:cx="31.696521"
     inkscape:cy="21.208779"
     inkscape:document-units="px"
     inkscape:current-layer="layer1"
     showgrid="true"
     inkscape:window-width="1280"
     inkscape:window-height="998"
     inkscape:window-x="0"
     inkscape:window-y="0"
     inkscape:window-maximized="1">
    <inkscape:grid
       type="xygrid"
       id="grid2990"
       empspacing="5"
       visible="true"
       enabled="true"
       snapvisiblegridlinesonly="true" />
  </sodipodi:namedview>
  <metadata
     id="metadata7">
    <rdf:RDF>
      <cc:Work
         rdf:about="">
        <dc:format>image/svg+xml</dc:format>
        <dc:type
           rdf:resource="http://purl.org/dc/dcmitype/StillImage" />
        <dc:title />
      </cc:Work>
    </rdf:RDF>
  </metadata>
  <g
     inkscape:label="Body"
     inkscape:groupmode="layer"
     id="layer1"
     transform="translate(0,-1004.3622)">
    <path
       style="font-size:medium;font-style:normal;font-variant:normal;font-weight:normal;font-stretch:normal;text-indent:0;text-align:start;text-decoration:none;line-height:normal;letter-spacing:normal;word-spacing:normal;text-transform:none;direction:ltr;block-progression:tb;writing-mode:lr-tb;text-anchor:start;baseline-shift:baseline;color:#000000;fill:#7e57c2;fill-opacity:1;fill-rule:nonzero;stroke:none;stroke-width:3.00000024;marker:none;visibility:visible;display:inline;overflow:visible;enable-background:accumulate;font-family:Sans;-inkscape-font-specification:Sans"
       d="M 5.1875 8 C 4.511132 8.144 3.984919 8.8087 4 9.5 L 4 37.5 C 4.000079 38.2853 4.714623 38.9999 5.5 39 L 42.5 39 C 43.285377 38.9999 43.999921 38.2853 44 37.5 L 44 12.53125 C 43.999921 11.74585 43.285377 11.03135 42.5 11.03125 L 28 11.03125 L 28 9.5 C 27.999921 8.7147 27.285377 8 26.5 8 L 5.5 8 C 5.396212 7.989 5.291288 7.989 5.1875 8 z M 16.875 17.40625 C 17.42521 17.39765 17.987788 17.451 18.53125 17.5 C 21.177615 17.7998 23.79953 18.8295 25.75 20.6875 C 26.353982 20.5736 26.981198 20.44175 27.59375 20.34375 C 28.497015 20.22445 29.414322 20.6127 30 21.3125 C 30.725445 22.2103 31.442684 23.0958 32.15625 24 C 32.519944 24.4725 32.268147 25.22785 31.6875 25.34375 C 30.706439 25.52125 29.697671 25.66895 28.71875 25.84375 C 28.777725 26.64575 28.606319 27.4803 28.125 28.125 C 27.584959 28.8807 26.665041 29.3237 25.75 29.4375 C 25.72287 30.1286 25.8091 30.83105 25.8125 31.53125 C 25.80782 31.86345 25.86964 32.20555 25.78125 32.53125 C 25.635978 33.02645 24.994081 33.3076 24.53125 33.0625 C 23.525831 32.5441 22.529607 32.05685 21.53125 31.53125 C 20.690058 31.08205 20.11607 30.17175 20.09375 29.21875 C 20.09265 28.67385 20.08283 28.1061 20.09375 27.5625 C 20.121636 27.4328 20.01353 27.41575 19.9375 27.34375 C 17.863302 25.78195 16.449309 23.4533 15.6875 21 C 15.388007 19.9304 15.116634 18.77235 15.28125 17.65625 C 15.804819 17.47425 16.32479 17.41625 16.875 17.40625 z M 20.1875 19.4375 C 19.548172 19.4959 18.911687 19.81175 18.46875 20.34375 C 17.582878 21.40765 17.7486 22.9891 18.8125 23.875 C 19.876401 24.7609 21.457877 24.59515 22.34375 23.53125 C 23.229623 22.46735 23.0639 20.8859 22 20 C 21.46805 19.5571 20.826828 19.3795 20.1875 19.4375 z M 20.25 20.28125 C 20.676071 20.24225 21.113795 20.36065 21.46875 20.65625 C 22.178659 21.24745 22.278617 22.2901 21.6875 23 C 21.096383 23.71 20.053659 23.80985 19.34375 23.21875 C 18.633841 22.62755 18.533883 21.5849 19.125 20.875 C 19.420558 20.52 19.823929 20.32025 20.25 20.28125 z M 30.40625 27.09375 C 30.479216 27.10075 30.56252 27.1385 30.625 27.1875 C 31.15909 27.6278 31.691509 28.0567 32.21875 28.5 C 32.483865 28.7121 32.356626 29.186 32.03125 29.25 C 31.768375 29.29 31.514269 29.31275 31.25 29.34375 C 31.512167 29.95265 31.775932 30.54435 32.03125 31.15625 C 32.155103 31.44645 31.86684 31.813 31.5625 31.75 C 30.91667 31.6071 30.277679 31.42115 29.625 31.28125 C 29.64897 31.54385 29.6793 31.82795 29.6875 32.09375 C 29.6832 32.42745 29.349876 32.6552 29.09375 32.4375 C 28.56737 32.0036 27.96174 31.499 27.4375 31.0625 C 27.182021 30.8585 27.25148 30.44175 27.5625 30.34375 C 28.756976 29.83815 29.658519 28.73665 29.9375 27.46875 C 29.96912 27.23965 30.187353 27.07375 30.40625 27.09375 z "
       transform="translate(0,1004.3622)"
       id="path3912" />
  </g>
</svg>

<!-- Created with Inkscape (http://www.inkscape.org/) -->
<svg xmlns="http://www.w3.org/2000/svg" viewBox="0 0 48 48">
 <g transform="translate(0,-1004.3622)">
  <path d="m 5.188 8 c -0.676 0.144 -1.203 0.809 -1.188 1.5 l 0 28 c 0 0.785 0.715 1.5 1.5 1.5 l 37 0 c 0.785 0 1.5 -0.715 1.5 -1.5 l 0 -24.969 c 0 -0.785 -0.715 -1.5 -1.5 -1.5 l -14.5 0 l 0 -1.531 c 0 -0.785 -0.715 -1.5 -1.5 -1.5 l -21 0 c -0.104 -0.011 -0.209 -0.011 -0.313 0 z m 11.688 9.406 c 0.55 -0.009 1.113 0.045 1.656 0.094 c 2.646 0.3 5.268 1.329 7.219 3.188 c 0.604 -0.114 1.231 -0.246 1.844 -0.344 c 0.903 -0.119 1.821 0.269 2.406 0.969 c 0.725 0.898 1.443 1.783 2.156 2.688 c 0.364 0.473 0.112 1.228 -0.469 1.344 c -0.981 0.177 -1.99 0.325 -2.969 0.5 c 0.059 0.802 -0.112 1.637 -0.594 2.281 c -0.54 0.756 -1.46 1.199 -2.375 1.313 c -0.027 0.691 0.059 1.394 0.063 2.094 c -0.005 0.332 0.057 0.674 -0.031 1 c -0.145 0.495 -0.787 0.776 -1.25 0.531 c -1.01 -0.518 -2 -1.01 -3 -1.531 c -0.841 -0.449 -1.415 -1.36 -1.438 -2.313 c -0.001 -0.545 -0.011 -1.113 0 -1.656 c 0.028 -0.13 -0.08 -0.147 -0.156 -0.219 c -2.074 -1.562 -3.488 -3.89 -4.25 -6.344 c -0.299 -1.07 -0.571 -2.228 -0.406 -3.344 c 0.524 -0.182 1.044 -0.24 1.594 -0.25 z m 3.313 2.031 c -0.639 0.058 -1.276 0.374 -1.719 0.906 c -0.886 1.064 -0.72 2.645 0.344 3.531 c 1.064 0.886 2.645 0.72 3.531 -0.344 c 0.886 -1.064 0.72 -2.645 -0.344 -3.531 c -0.532 -0.443 -1.173 -0.62 -1.813 -0.563 z m 0.063 0.844 c 0.426 -0.039 0.864 0.079 1.219 0.375 c 0.71 0.591 0.81 1.634 0.219 2.344 c -0.591 0.71 -1.634 0.81 -2.344 0.219 c -0.71 -0.591 -0.81 -1.634 -0.219 -2.344 c 0.296 -0.355 0.699 -0.555 1.125 -0.594 z m 10.156 6.813 c 0.073 0.007 0.156 0.045 0.219 0.094 c 0.534 0.44 1.067 0.869 1.594 1.313 c 0.265 0.212 0.138 0.686 -0.188 0.75 c -0.263 0.04 -0.517 0.063 -0.781 0.094 c 0.262 0.609 0.526 1.201 0.781 1.813 c 0.124 0.29 -0.164 0.657 -0.469 0.594 c -0.646 -0.143 -1.285 -0.329 -1.938 -0.469 c 0.024 0.263 0.054 0.547 0.063 0.813 c -0.004 0.334 -0.338 0.561 -0.594 0.344 c -0.526 -0.434 -1.132 -0.939 -1.656 -1.375 c -0.255 -0.204 -0.186 -0.621 0.125 -0.719 c 1.194 -0.506 2.096 -1.607 2.375 -2.875 c 0.032 -0.229 0.25 -0.395 0.469 -0.375 z" transform="translate(0,1004.3622)" style="visibility:visible;fill:#7e57c2;fill-opacity:1;stroke:none;display:inline;color:#000;fill-rule:nonzero"/>
 </g>
</svg>
